icons/h.svg

<svg width="16" height="16" viewBox="0 0 16 16" fill="none" xmlns="http://www.w3.org/2000/svg">
<path fill-rule="evenodd" clip-rule="evenodd" d="M11 3.45201L12.85 4.52C13.0528 4.63594 13.2216 4.80328 13.3392 5.00516C13.4568 5.20705 13.5192 5.43635 13.52 5.67V10.45C13.5189 10.6849 13.4565 10.9155 13.339 11.119C13.2215 11.3224 13.053 11.4917 12.85 11.61L11 12.678V3.45201ZM9.05274 2.32786L8.71 2.13C8.50629 2.01239 8.27522 1.95047 8.04 1.95047C7.80478 1.95047 7.5737 2.01239 7.37 2.13L6.94726 2.37404V6.67532H9.05274V2.32786ZM5 3.49819L3.23 4.52C3.02715 4.63594 2.85842 4.80328 2.7408 5.00516C2.62318 5.20705 2.56082 5.43635 2.56 5.67V10.45C2.56108 10.6849 2.62346 10.9155 2.74097 11.119C2.85847 11.3224 3.02704 11.4917 3.23 11.61L5 12.6318V3.49819ZM6.94726 13.756L7.37 14C7.5737 14.1176 7.80478 14.1795 8.04 14.1795C8.27522 14.1795 8.50629 14.1176 8.71 14L9.05274 13.8021V8.83983H6.94726V13.756Z" fill="#506EFF"/>
</svg>

<svg xmlns="http://www.w3.org/2000/svg" width="16" height="16" fill="none"><path fill="#506EFF" fill-rule="evenodd" d="m11 3.452 1.85 1.068a1.33 1.33 0 0 1 .67 1.15v4.78a1.35 1.35 0 0 1-.67 1.16L11 12.678V3.452ZM9.053 2.328 8.71 2.13a1.34 1.34 0 0 0-1.34 0l-.423.244v4.301h2.106V2.328ZM5 3.498 3.23 4.52a1.33 1.33 0 0 0-.67 1.15v4.78a1.35 1.35 0 0 0 .67 1.16L5 12.632V3.498Zm1.947 10.258L7.37 14a1.34 1.34 0 0 0 1.34 0l.343-.198V8.84H6.947v4.916Z" clip-rule="evenodd"/></svg>
